packages/icons/src/SVG/credit-card-solid.svg

<svg width="12" height="12" viewBox="0 0 12 12" >
<path d="M0 4V3C0 2.44772 0.447715 2 1 2L11 2C11.5523 2 12 2.44772 12 3V4H0Z" />
<path fill-rule="evenodd" clip-rule="evenodd" d="M0 5V9C0 9.55228 0.447715 10 1 10L11 10C11.5523 10 12 9.55228 12 9V5H0ZM1 8H4V9H1V8ZM10 7C9.44771 7 9 7.44772 9 8C9 8.55228 9.44771 9 10 9C10.5523 9 11 8.55228 11 8C11 7.44772 10.5523 7 10 7Z" />
</svg>

<!-- Generated by IcoMoon.io -->
<svg version="1.1" xmlns="http://www.w3.org/2000/svg" width="12" height="12" viewBox="0 0 12 12">
<title>credit-card-solid</title>
<path d="M0 4v-1c0-0.552 0.448-1 1-1h10c0.552 0 1 0.448 1 1v1h-12z"></path>
<path d="M0 5v4c0 0.552 0.448 1 1 1h10c0.552 0 1-0.448 1-1v-4h-12zM1 8h3v1h-3v-1zM10 7c0.552 0 1 0.448 1 1s-0.448 1-1 1c-0.552 0-1-0.448-1-1s0.448-1 1-1z"></path>
</svg>
